X:1
T:Les Rêves
T:Les Rêves
T:Cécile Chaminade
T:Louis Guays (trans. Dr. Th. Baker)
T:OpenScore (CC0)
T:OpenScore (CC0)
T:OpenScore (CC0)
T:OpenScore (CC0)
T:OpenScore (CC0)
T:OpenScore (CC0)
T:OpenScore (CC0)
T:OpenScore (CC0)
C:Cécile Chaminade
Z:Louis Guays
Z:OpenScore (CC0)
%%score ( 1 2 ) { ( 3 4 ) | ( 5 6 ) }
L:1/8
Q:1/4=92
M:4/4
K:Bb
V:1 treble nm="Voice"
V:2 treble 
V:3 treble nm="Piano"
V:4 treble 
V:5 bass 
V:6 bass 
V:1
"^Allegretto" z8 | z8 | z4 z2 z!<(! D!<)! | d2 ^c c =c2 ^c c | %4
w: ||Les|rê- ves se po- sent sur|
w: ||The|dreams on our pil- low do|
!>(! d2 (3((GA)!>)! B) (3G z!p! D (3=E ^F G |!<(! (A2!<)! B4 ^C2) | D2- D z z4 | %7
w: nous Un * mo- ment, sans pli- er leurs|ai- * *|les, *|
w: light For * a span, with wings ev- er|wav- * *|ing, *|
!ppp! A2 B2 (c(3B/c/B/ A2) | z G A A (B(3A/B/A/ G) G | ^F G A B c (3(B/c/B/) A2 | z8 | %11
w: Ils mur- mu- * * * rent,|char- mants et frê- * * * les Des|chants très va- gues et très * * doux,||
w: Soft- ly sing- * * * ing,|our sense en- slav- * * * ing In|fleet- ing vis- ions vague, yet * * bright;||
!f! d2 ^G G!>(! A A"^dolce" (3(A!>)!=B) A |!p! (c2 ^F2 G) z!mf! G G | B2 A A F2{EF} (3(EDC) | %14
w: Puis, qu'un vent pas- se, l'aile * ou-|ver- * te Ils re-|par- tent tou- jours chan- * *|
w: Then, at a breath, ere we * a-|wak- * en, They de-|part with the same low * *|
!>(! D4 z4!>)! |!p! G G"^cresc." G G B2 G G |!f!!>(! (!>!e4!>)! d2- d) z | %17
w: tants,|Et leur place est vi- de long-|temps, * *|
w: song,|And their place is va- cant for|long, * *|
!p! D2 D"^poco rit."[Q:1/4=88] D G[Q:1/4=84]!>(! G"^dolcissimo" (3(AB) G!>)![Q:1/4=80] || %18
w: Et pour long- temps l'âme est * dé-|
w: And long the soul re- mains * for-|
[M:2/4]!pp! d4 ||[M:4/4][Q:1/4=92]"_a tempo" d2- d z z4 | z8 | z4 z2 (3z!<(! D D!<)! | %22
w: ser-|te! *||Un beau|
w: sak-|en! *||So doth|
!f! d2 ^c c =c2 ^c2 | d2!p! (3(GA) B (3G z D (3=E ^F G |!<(! (A2!<)! B4 ^C2 | D2-) D z z4 | %26
w: jour le bon- heur nous|vient Sou- * ri- ant, tout vê- tu de|ro- * *|se *|
w: Hap- pi- ness fly to|men, With * a smile, and  clad * in|ros- * *|es, *|
!ppp! A2 B B (c(3B/c/B/ A2) | G2 A2 (B(3A/B/A/ G) G | ^F G A B c (3(B/c/B/) A2 | %29
w: Par- fois il sem- * * * ble|peu de cho- * * * se, Quand|de son rêve on se sou- * * vient.|
w: Sel- dom an i- * * * dle|thought dis- clo- * * * ses A|vis- ion of the dream a- * * gain.|
 z4 z2 (3z!<(! D D!<)! |!f! d2 ^G2 A2!p! (3(A"^dolce"=B) A | (c2 ^F2) =G z!mf! G G | %32
w: Il se|pose aus- si l'aile * ou-|ver- * te, Il re-|
w: She be-|fools us ere we * a-|wak- * en, She de-|
 B2 A2 F2{EF} (3(ED) C | D2- D z z4 |!p!!<(! G G G G B2!<)! G G |!f!!>(! (e4!>)! d2-) d z | %36
w: part a- près quel- * ques|jours *|Et sa place est vi- de tou-|jours, * *|
w: parts from us in * a|day, *|And the place is va- cant al-|way, * *|
!p! D2 D"^poco rit."[Q:1/4=88] D G[Q:1/4=84] G!>(! (3(AB)!>)![Q:1/4=80] G ||[M:2/4]!pp! d4 || %38
w: Et pour tou- jours l'âme est * dé-|ser-|
w: Al- way the soul re- mains * for-|sak-|
[M:4/4][Q:1/4=92]"_a tempo" d2- d z z4 | z8 |] %40
w: te! *||
w: en! *||
V:2
 x8 | x8 | x8 | x8 | x8 | x8 | x8 | x8 | x8 | x8 | x8 | x8 | x8 | x8 | x8 | x8 | x8 | x8 || %18
[M:2/4] x4 ||[M:4/4] x8 | x8 | x8 | x8 | x6 (3(=E^F) G | x8 | x8 | x8 | x8 | x8 | x8 | x8 | x8 | %32
 x8 | x8 | x8 | x8 | x8 ||[M:2/4] x4 ||[M:4/4] x8 | x8 |] %40
V:3
!mf! (!arpeggio![GBdg]3 (3f/g/f/ d) x !arpeggio![D^Fd] d3/4(d/8B/8 | %1
 G3) (3=F/G/F/ .D x D D3/4(D/8B,/8 | !>!G,4) z4 | %3
 (!>![DBd]2 !>![^CA^c]2 !>![=C_A=c]2 !>![^C=A^c]2 |!>(! [DBd]) ([DG-] [A,EG][D^F]!>)! [B,G]2) z2 | %5
!p!!<(! [DA][DA]!<)![DB][DB]!>(! [Gd][Gd][G^c]!>)![Gc] | [^FA]2 x4 z2 | %7
!ppp! (^f/d/f/d/ g/e/g/e/ a/=f/g/e/ ^f/d/f/d/) | (e/c/e/c/ f/d/f/d/ g/e/f/d/ e/c/e/c/) | %9
 (d/c/=e/d/ ^f/d/g/d/ a/d/g/d/- [df]2) | %10
!mf! (D!<(![C_E][D=F][EG]!<)!!>(! [FA](3G/A/G/!>)! [D^F]2) | %11
!f!!>(! (!>![^G,D^G] [G,DG]2 [G,DG]) ([=G,^C=G]!>)!!p! [G,CG]2 [G,CG]) | %12
 ([^F,=C^F] [F,CF]2 [F,CF]) ([G,B,D]!>(! [G,B,D]2!mf! [G,B,D])!>)! |!mf! !>!EE z E DD z C | x8 | %15
!p!"_cresc."[I:staff +1] ([D,G,B,] [D,G,B,]2 [D,G,B,])!<(![I:staff -1] ([G,E] [G,E]2 [G,E])!<)! | %16
!f! (!>![A,EA] [A,EA]2 [A,EA])!p! ([B,DB]!>(! [B,DB]2 [B,DB])!>)! | %17
!pp! ([G,D] [G,D]2 [G,D]) ([G,^C] [G,C]2 [G,C]) ||[M:2/4] =C4 || %19
[M:4/4] (!arpeggio![GBdg]3 (3f/g/f/ .d) x !arpeggio![D^Fd] d3/4(d/8B/8 | %20
 (G3) (3=F/G/F/ .D) x D (D3/4D/8B,/8 | !>!G,4) z4 | %22
!mf! (!>![DBd]2 !>![^CA^c]2 !>![=C_A=c]2 !>![^C=A^c]2 |!p! [DBd] [DG-] [A,EG][D^F] [B,G]2) z2 | %24
!p!!<(! [DA][DA][DB]!<)![DB]!>(! [Gd][Gd][G^c]!>)![Gc] |!p! [^FA]2 x4 z2 | %26
!ppp! (^f/d/f/d/ g/e/g/e/ a/=f/g/e/ f/d/f/d/) | (e/c/e/c/ f/d/f/d/ g/e/f/d/ e/c/e/c/) | %28
 (d/c/=e/d/ ^f/d/g/d/ a/d/g/d/- [df]2) | %29
!mf! (D!<(![C_E][D=F][EG]!<)!!>(! [FA](3G/A/G/!>)! [D^F]2) | %30
!mf!!>(! (!>![^G,D^G] [G,DG]2 [G,DG]) ([=G,^C=G]!>)!!p! [G,CG]2 [G,CG]) | %31
!pp! ([^F,=C^F] [F,CF]2 [F,CF]) ([G,B,D] [G,B,D]2 [G,B,D]) | !>!EE z E DD z C | x8 | %34
!<(![I:staff +1] ([D,G,B,] [D,G,B,]2 [D,G,B,])[I:staff -1] ([G,E] [G,E]2 [G,E])!<)! | %35
!f! (!>![A,EA]!mf! [A,EA]2 [A,EA])!p!!>(! ([B,DB] [B,DB]2 [B,DB])!>)! | %36
!p! ([G,D] [G,D]2 [G,D]) ([G,^C] [G,C]2 [G,C]) ||[M:2/4]!pp! =C4 || %38
[M:4/4] (!arpeggio![GBdg]3 (3f/g/f/ .d) x !arpeggio!.[D^Fd] (d3/4d/8B/8 | %39
 [DG]2) D3/2 (D/4B,/4 (G,2) !arpeggio!.[GBg]) z |] %40
V:4
 x3 A B.d x2 | D2 A,2 B,.D x2 | x8 | x8 | x8 | x8 | x8 | x8 | x8 | x8 | x5 E x2 | x8 | x8 | x8 | %14
 x8 | x8 | x8 | x8 ||[M:2/4] (G,2 ^F,2) ||[M:4/4] x3 A B.d x2 | D2 A,2 B,.D x2 | x8 | x8 | x8 | %24
 x8 | x8 | x8 | x8 | x8 | x5 E x2 | x8 | x8 | x8 | x8 | x8 | x8 | x8 ||[M:2/4] (G,2 ^F,2) || %38
[M:4/4] x3 A B.d x2 | x8 |] %40
V:5
 [G,,,G,,]6 x2 | G,,[D,B,] E,=F,, [B,,,B,,]F,, !arpeggio![D,^F,] x | %2
 (!>!G,,, D,,2 D,, !>!G,,, D,,2 D,,) | (G,,D, E,G,, F,G,, E,G,,) | (D,B,,C,D, G,,2) z2 | %5
 ([A,,^F,A,][A,,F,A,][_F,_A,][F,A,] [=E,B,][E,B,][A,,E,][A,,E,]) | %6
!ped! D,,/!>(!A,,/^F,/[I:staff -1]A,/ D/^F/A/d/!>)! .a2!ped-up![I:staff +1] x2 | %7
[K:treble] (A2 B2 cB A2) | (G2 A2 BA G2) | (^FGAB cB A2) |[K:bass] (^F,G,A,B, CB, [D,A,]2) | %11
 (!>![B,,,=F,,B,,] [B,,,F,,B,,]2 [B,,,F,,B,,]) ([A,,,=E,,A,,] [A,,,E,,A,,]2 [A,,,E,,A,,]) | %12
 ([_A,,,_E,,_A,,] [A,,,E,,A,,]2 [A,,,E,,A,,]) ([G,,,D,,G,,] [G,,,D,,G,,]2 [G,,,D,,G,,]) | %13
 [E,B,][E,B,] z [E,A,] [D,A,][D,G,] z [C,G,] | !tenuto![D,^F,A,]4 z4 | %15
 (G,, G,,2 G,,) ([E,,B,,] [E,,B,,]2 [E,,B,,]) | %16
 (!>![C,,F,,C,] [C,,F,,C,]2 [C,,F,,C,]) ([B,,,F,,B,,] [B,,,F,,B,,]2 [B,,,F,,B,,]) | %17
 ([E,,B,,] [E,,B,,]2 [E,,B,,])"^poco rit." ([A,,,A,,] [A,,,A,,]2 [A,,,A,,]) || %18
[M:2/4] (D,, D,,2 D,,) ||[M:4/4]"^dolce" [G,,,G,,]6 x2 | %20
 G,,[D,B,] E,=F,, [B,,,B,,]F,, !arpeggio![D,^F,] x | (!>!G,,, D,,2 D,, !>!G,,, D,,2 D,,) | %22
 (G,,D, E,G,, F,G,, E,G,, | D,B,,C,D, G,,2) z2 | %24
 (!arpeggio![A,,^F,A,][F,A,][=F,_A,][F,A,] [=E,B,][E,B,][A,,E,][A,,E,]) | %25
!ped! D,,/!>(!A,,/^F,/[I:staff -1]A,/ D/^F/A/d/!>)! .a2!ped-up![I:staff +1] x2 | %26
[K:treble] (A2 B2 cB A2) | (G2 A2 BA G2) | (^FGAB cB A2) |[K:bass] (^F,G,A,B, CB, [D,A,]2) | %30
 (!>![B,,,=F,,B,,] [B,,,F,,B,,]2 [B,,,F,,B,,]) ([A,,,=E,,A,,] [A,,,E,,A,,]2 [A,,,E,,A,,]) | %31
 ([_A,,,_E,,_A,,] [A,,,E,,A,,]2 [A,,,E,,A,,]) ([G,,,D,,G,,] [G,,,D,,G,,]2 [G,,,D,,G,,]) | %32
 [E,B,][E,B,] z [E,A,] [D,A,][D,G,] z [C,G,] | !tenuto![D,^F,A,]4 z4 | %34
 (G,, G,,2 G,,) ([E,,B,,] [E,,B,,]2 [E,,B,,]) | %35
 (!>![C,,F,,C,] [C,,F,,C,]2!p! [C,,F,,C,]) ([B,,,F,,B,,] [B,,,F,,B,,]2 [B,,,F,,B,,]) | %36
 ([E,,B,,] [E,,B,,]2 [E,,B,,])"^poco rit." ([A,,,A,,] [A,,,A,,]2 [A,,,A,,]) || %37
[M:2/4] (D,, D,,2 D,,) ||[M:4/4] [G,,,G,,]6 x2 | ([D,B,]G,,) !arpeggio![D,^F,]3/2 x/ x3 z |] %40
V:6
 z [D,G,B,D]2 [D,G,B,D]2 [D,G,B,D] z [D,A,C] | x6 D,,2 | x8 | x8 | x8 | x8 | D,,4- D,,4 | %7
[K:treble] D4 D4 | D4 D4 | D4 D4 |[K:bass] D,4 C,2 x2 | x8 | x8 | %13
 !>![C,,C,][C,,C,] z F,, [B,,,B,,][B,,,B,,] z E,, | %14
 .D,,!p!.D,!>(!.^C,.=C, .=B,,._B,,.A,,._A,,!>)! | x8 | x8 | x8 ||[M:2/4] x4 || %19
[M:4/4] z [D,G,B,D]2 [D,G,B,D]2 [D,G,B,D] z [D,A,C] | x6 D,,2 | x8 | x8 | x8 | x8 | D,,4- D,,4 | %26
[K:treble] D4 D4 | D4 D4 | D4 D4 |[K:bass] D,4 C,2 x2 | x8 | x8 | %32
 !>![C,,C,][C,,C,] z F,, [B,,,B,,][B,,,B,,] z E,, | .D,,!>(!.D,.^C,.=C, .=B,,._B,,.A,,!>)!._A,, | %34
 x8 | x8 | x8 ||[M:2/4] x4 ||[M:4/4] z [D,G,B,D]2 [D,G,B,D]2 [D,G,B,D] z [D,A,C] | %39
 x2 D,,2 ([G,,,G,,]2 .[G,D]) x |] %40

